SVG_Azure_Grouped/Application/Event Grid Domain.svg

<?xml version="1.0" encoding="UTF-8" standalone="no"?>
<!-- Generated by Microsoft Visio, SVG Export Event Grid Domain.svg Page-1 -->

<svg
   xmlns:dc="http://purl.org/dc/elements/1.1/"
   xmlns:cc="http://creativecommons.org/ns#"
   xmlns:rdf="http://www.w3.org/1999/02/22-rdf-syntax-ns#"
   xmlns:svg="http://www.w3.org/2000/svg"
   xmlns="http://www.w3.org/2000/svg"
   xmlns:sodipodi="http://sodipodi.sourceforge.net/DTD/sodipodi-0.dtd"
   xmlns:inkscape="http://www.inkscape.org/namespaces/inkscape"
   width="0.78753227in"
   height="0.70868081in"
   viewBox="0 0 56.702214 51.025002"
   xml:space="preserve"
   class="st5"
   version="1.1"
   id="svg102"
   sodipodi:docname="Event Grid Domain.svg"
   style="font-size:12px;overflow:visible;color-interpolation-filters:sRGB;fill:none;fill-rule:evenodd;stroke-linecap:square;stroke-miterlimit:3"
   inkscape:version="0.92.5 (2060ec1f9f, 2020-04-08)"><metadata
   id="metadata106"><rdf:RDF><cc:Work
       rdf:about=""><dc:format>image/svg+xml</dc:format><dc:type
         rdf:resource="http://purl.org/dc/dcmitype/StillImage" /></cc:Work></rdf:RDF></metadata><sodipodi:namedview
   pagecolor="#ffffff"
   bordercolor="#666666"
   borderopacity="1"
   objecttolerance="10"
   gridtolerance="10"
   guidetolerance="10"
   inkscape:pageopacity="0"
   inkscape:pageshadow="2"
   inkscape:window-width="640"
   inkscape:window-height="480"
   id="namedview104"
   showgrid="false"
   inkscape:zoom="1.4869072"
   inkscape:cx="37.79867"
   inkscape:cy="34.006413"
   inkscape:window-x="0"
   inkscape:window-y="0"
   inkscape:window-maximized="0"
   inkscape:current-layer="svg102" />
	<style
   type="text/css"
   id="style2">
	<![CDATA[
		.st1 {fill:#949494;stroke:none;stroke-linecap:butt;stroke-width:34}
		.st2 {fill:url(#grad0-8);stroke:none;stroke-linecap:butt;stroke-width:34}
		.st3 {fill:#999999;stroke:none;stroke-linecap:butt;stroke-width:34}
		.st4 {fill:#999999;fill-opacity:0.5;stroke:none;stroke-linecap:butt;stroke-width:34}
		.st5 {fill:none;fill-rule:evenodd;font-size:12px;overflow:visible;stroke-linecap:square;stroke-miterlimit:3}
	]]>
	</style>

	<defs
   id="Patterns_And_Gradients">
		<linearGradient
   id="grad0-8"
   x1="-0.00019689253"
   y1="75.788926"
   x2="21.789987"
   y2="75.788926"
   gradientTransform="scale(0.81109825,1.2328963)"
   gradientUnits="userSpaceOnUse">
			<stop
   offset="0"
   stop-color="#198ab3"
   stop-opacity="1"
   id="stop4" />
			<stop
   offset="0"
   stop-color="#198ab3"
   stop-opacity="1"
   id="stop6" />
			<stop
   offset="0.11"
   stop-color="#22a5cb"
   stop-opacity="1"
   id="stop8" />
			<stop
   offset="0.23"
   stop-color="#29bade"
   stop-opacity="1"
   id="stop10" />
			<stop
   offset="0.37"
   stop-color="#2ec9eb"
   stop-opacity="1"
   id="stop12" />
			<stop
   offset="0.53"
   stop-color="#31d1f3"
   stop-opacity="1"
   id="stop14" />
			<stop
   offset="0.78"
   stop-color="#32d4f5"
   stop-opacity="1"
   id="stop16" />
		</linearGradient>
	</defs>
	<g
   id="g100"
   transform="translate(-34.000106,-33.9993)">
		<title
   id="title20">Page-1</title>
		<g
   id="group14231-1"
   transform="translate(34.0052,-34.0157)">
			<title
   id="title22">Event Grid Domain.14231</title>
			<g
   id="group14232-2">
				<title
   id="title24">Icon-iot-183</title>
				<g
   id="shape14233-3"
   transform="translate(8.87077,-16.3451)">
					<title
   id="title26">Sheet.14233</title>
					<path
   d="M 36.02,107.38 H 13.21 l 6.43,-6.54 h 10.77 v -2.53 h -11.8 l -8.94,9.07 H 0 v 2.53 h 1.73 l 8.97,9.13 h 13.38 v -2.53 H 11.74 l -6.5,-6.6 h 30.78 z"
   class="st1"
   id="path28"
   inkscape:connector-curvature="0"
   style="fill:#949494;stroke:none;stroke-width:34;stroke-linecap:butt" />
				</g>
				<g
   id="shape14234-5"
   transform="translate(30.1473,-14.5397)">
					<title
   id="title31">Sheet.14234</title>
					<path
   d="m 5.17,93.44 a 4.30199,4.34746 0 1 1 -4.3,4.31 4.26864,4.31375 0 0 1 4.3,-4.31 z m 3.9,13.48 a 4.30199,4.34746 -180 1 0 4.3,-4.31 4.30199,4.34746 -180 0 0 -4.3,4.24 z m -9.07,9 a 4.30199,4.34746 -180 1 0 4.3,-4.31 4.26864,4.31375 -180 0 0 -4.3,4.31 z"
   class="st2"
   id="path33"
   inkscape:connector-curvature="0"
   style="fill:url(#grad0-8);stroke:none;stroke-width:34;stroke-linecap:butt" />
				</g>
				<g
   id="group14235-9"
   transform="translate(0,-38.015)">
					<title
   id="title36">Sheet.14235</title>
					<g
   id="shape14236-10">
						<title
   id="title38">Sheet.14236</title>
						<path
   d="m 1.9,106.03 h 4.3 v 12.03 a 0.967114,0.977335 0 0 1 -0.967114,0.97733 L 0.97,119.04 A 0.967114,0.977335 0 0 1 0.002886,118.06267 L 0,107.95 a 1.90088,1.92097 0 0 1 1.9,-1.92 z"
   class="st3"
   id="path40"
   inkscape:connector-curvature="0"
   style="fill:#999999;stroke:none;stroke-width:34;stroke-linecap:butt" />
					</g>
					<g
   id="shape14237-12">
						<title
   id="title43">Sheet.14237</title>
						<path
   d="m 1.9,106.03 h 4.3 v 12.03 a 0.967114,0.977335 0 0 1 -0.967114,0.97733 L 0.97,119.04 A 0.967114,0.977335 0 0 1 0.002886,118.06267 L 0,107.95 a 1.90088,1.92097 0 0 1 1.9,-1.92 z"
   class="st4"
   id="path45"
   inkscape:connector-curvature="0"
   style="fill:#999999;fill-opacity:0.5;stroke:none;stroke-width:34;stroke-linecap:butt" />
					</g>
				</g>
				<g
   id="group14238-14"
   transform="translate(50.49,-38.015)">
					<title
   id="title49">Sheet.14238</title>
					<g
   id="shape14239-15">
						<title
   id="title51">Sheet.14239</title>
						<path
   d="m 0,106.03 h 4.3 a 1.90088,1.92097 0 0 1 1.9,1.92 v 10.11 a 0.967114,0.977335 0 0 1 -0.967114,0.97733 L 0.93,119.04 a 0.967114,0.977335 0 0 1 -0.933766,-0.97733 z"
   class="st3"
   id="path53"
   inkscape:connector-curvature="0"
   style="fill:#999999;stroke:none;stroke-width:34;stroke-linecap:butt" />
					</g>
					<g
   id="shape14240-17">
						<title
   id="title56">Sheet.14240</title>
						<path
   d="m 0,106.03 h 4.3 a 1.90088,1.92097 0 0 1 1.9,1.92 v 10.11 a 0.967114,0.977335 0 0 1 -0.967114,0.97733 L 0.93,119.04 a 0.967114,0.977335 0 0 1 -0.933766,-0.97733 z"
   class="st4"
   id="path58"
   inkscape:connector-curvature="0"
   style="fill:#999999;fill-opacity:0.5;stroke:none;stroke-width:34;stroke-linecap:butt" />
					</g>
				</g>
				<g
   id="shape14241-19"
   transform="translate(0,-44.89)">
					<title
   id="title62">Sheet.14241</title>
					<path
   d="m 56.69,114.83 v 4.21 H 0 v -4.21 a 1.90088,1.92097 0 0 1 1.9,-1.92 h 52.93 a 1.90088,1.92097 0 0 1 1.86,1.92 z"
   class="st1"
   id="path64"
   inkscape:connector-curvature="0"
   style="fill:#949494;stroke:none;stroke-width:34;stroke-linecap:butt" />
				</g>
				<g
   id="group14242-21">
					<title
   id="title67">Sheet.14242</title>
					<g
   id="shape14243-22">
						<title
   id="title69">Sheet.14243</title>
						<path
   d="m 0.97,105.93 h 4.3 a 0.967114,0.977335 0 0 1 0.967114,0.97734 L 6.24,119.04 H 1.9 A 1.90088,1.92097 0 0 1 0,117.12 v -10.11 a 0.967114,0.977335 0 0 1 0.967114,-1.07844 z"
   class="st3"
   id="path71"
   inkscape:connector-curvature="0"
   style="fill:#999999;stroke:none;stroke-width:34;stroke-linecap:butt" />
					</g>
					<g
   id="shape14244-24">
						<title
   id="title74">Sheet.14244</title>
						<path
   d="m 0.97,105.93 h 4.3 a 0.967114,0.977335 0 0 1 0.967114,0.97734 L 6.24,119.04 H 1.9 A 1.90088,1.92097 0 0 1 0,117.12 v -10.11 a 0.967114,0.977335 0 0 1 0.967114,-1.07844 z"
   class="st4"
   id="path76"
   inkscape:connector-curvature="0"
   style="fill:#999999;fill-opacity:0.5;stroke:none;stroke-width:34;stroke-linecap:butt" />
					</g>
				</g>
				<g
   id="group14245-26"
   transform="translate(50.49,-0.101104)">
					<title
   id="title80">Sheet.14245</title>
					<g
   id="shape14246-27">
						<title
   id="title82">Sheet.14246</title>
						<path
   d="m 0.93,106.03 h 4.31 a 0.967114,0.977335 0 0 1 0.967114,0.97733 L 6.2,117.12 a 1.90088,1.92097 0 0 1 -1.9,1.92 H 0 v -11.93 a 0.967114,0.977335 0 0 1 0.933766,-1.07844 z"
   class="st3"
   id="path84"
   inkscape:connector-curvature="0"
   style="fill:#999999;stroke:none;stroke-width:34;stroke-linecap:butt" />
					</g>
					<g
   id="shape14247-29">
						<title
   id="title87">Sheet.14247</title>
						<path
   d="m 0.93,106.03 h 4.31 a 0.967114,0.977335 0 0 1 0.967114,0.97733 L 6.2,117.12 a 1.90088,1.92097 0 0 1 -1.9,1.92 H 0 v -11.93 a 0.967114,0.977335 0 0 1 0.933766,-1.07844 z"
   class="st4"
   id="path89"
   inkscape:connector-curvature="0"
   style="fill:#999999;fill-opacity:0.5;stroke:none;stroke-width:34;stroke-linecap:butt" />
					</g>
				</g>
				<g
   id="shape14248-31">
					<title
   id="title93">Sheet.14248</title>
					<path
   d="m 0,117.12 v -4.21 h 56.69 v 4.21 a 1.90088,1.92097 0 0 1 -1.9,1.92 H 1.9 A 1.90088,1.92097 0 0 1 0,117.12 Z"
   class="st1"
   id="path95"
   inkscape:connector-curvature="0"
   style="fill:#949494;stroke:none;stroke-width:34;stroke-linecap:butt" />
				</g>
			</g>
		</g>
	</g>
</svg>

<?xml version="1.0" encoding="UTF-8" standalone="no"?>
<!DOCTYPE svg PUBLIC "-//W3C//DTD SVG 1.1//EN" "http://www.w3.org/Graphics/SVG/1.1/DTD/svg11.dtd">
<!-- Generated by Microsoft Visio, SVG Export Event Grid Domain.svg Page-1 -->
<svg xmlns="http://www.w3.org/2000/svg" xmlns:xlink="http://www.w3.org/1999/xlink" xmlns:ev="http://www.w3.org/2001/xml-events"
		width="1.73192in" height="1.65332in" viewBox="0 0 124.698 119.039" xml:space="preserve" color-interpolation-filters="sRGB"
		class="st5">
	<style type="text/css">
	<![CDATA[
		.st1 {fill:#949494;stroke:none;stroke-linecap:butt;stroke-width:34}
		.st2 {fill:url(#grad0-8);stroke:none;stroke-linecap:butt;stroke-width:34}
		.st3 {fill:#999999;stroke:none;stroke-linecap:butt;stroke-width:34}
		.st4 {fill:#999999;fill-opacity:0.5;stroke:none;stroke-linecap:butt;stroke-width:34}
		.st5 {fill:none;fill-rule:evenodd;font-size:12px;overflow:visible;stroke-linecap:square;stroke-miterlimit:3}
	]]>
	</style>

	<defs id="Patterns_And_Gradients">
		<linearGradient id="grad0-8" x1="0" y1="0" x2="1" y2="0" gradientTransform="rotate(-88.484441664842 0.5 0.5)">
			<stop offset="0" stop-color="#198ab3" stop-opacity="1"/>
			<stop offset="0" stop-color="#198ab3" stop-opacity="1"/>
			<stop offset="0.11" stop-color="#22a5cb" stop-opacity="1"/>
			<stop offset="0.23" stop-color="#29bade" stop-opacity="1"/>
			<stop offset="0.37" stop-color="#2ec9eb" stop-opacity="1"/>
			<stop offset="0.53" stop-color="#31d1f3" stop-opacity="1"/>
			<stop offset="0.78" stop-color="#32d4f5" stop-opacity="1"/>
		</linearGradient>
	</defs>
	<g>
		<title>Page-1</title>
		<g id="group13884-1" transform="translate(34.0052,-34.0157)">
			<title>Event Grid Domain.13884</title>
			<g id="group13885-2">
				<title>Icon-iot-183</title>
				<g id="shape13886-3" transform="translate(8.87077,-16.3451)">
					<title>Sheet.13886</title>
					<path d="M36.02 107.38 L13.21 107.38 L19.64 100.84 L30.41 100.84 L30.41 98.31 L18.61 98.31 L9.67 107.38 L0 107.38
								 L0 109.91 L1.73 109.91 L10.7 119.04 L24.08 119.04 L24.08 116.51 L11.74 116.51 L5.24 109.91 L36.02
								 109.91 L36.02 107.38 Z" class="st1"/>
				</g>
				<g id="shape13887-5" transform="translate(30.1473,-14.5397)">
					<title>Sheet.13887</title>
					<path d="M5.17 93.44 A4.30199 4.34746 0 1 1 0.87 97.75 A4.26864 4.31375 0 0 1 5.17 93.44 ZM9.07 106.92 A4.30199
								 4.34746 -180 1 0 13.37 102.61 A4.30199 4.34746 -180 0 0 9.07 106.85 L9.07 106.92 ZM0 115.92 A4.30199
								 4.34746 -180 1 0 4.3 111.61 A4.26864 4.31375 -180 0 0 -0 115.92 Z" class="st2"/>
				</g>
				<g id="group13888-9" transform="translate(5.64548E-14,-38.015)">
					<title>Sheet.13888</title>
					<g id="shape13889-10">
						<title>Sheet.13889</title>
						<path d="M1.9 106.03 L6.2 106.03 L6.2 118.06 a0.967114 0.977335 0 0 1 -0.967114 0.977335 L0.97 119.04 a0.967114
									 0.977335 0 0 1 -0.967114 -0.977335 L0 107.95 A1.90088 1.92097 0 0 1 1.9 106.03 Z" class="st3"/>
					</g>
					<g id="shape13890-12">
						<title>Sheet.13890</title>
						<path d="M1.9 106.03 L6.2 106.03 L6.2 118.06 a0.967114 0.977335 0 0 1 -0.967114 0.977335 L0.97 119.04 a0.967114
									 0.977335 0 0 1 -0.967114 -0.977335 L0 107.95 A1.90088 1.92097 0 0 1 1.9 106.03 Z" class="st4"/>
					</g>
				</g>
				<g id="group13891-14" transform="translate(50.49,-38.015)">
					<title>Sheet.13891</title>
					<g id="shape13892-15">
						<title>Sheet.13892</title>
						<path d="M0 106.03 L4.3 106.03 A1.90088 1.92097 0 0 1 6.2 107.95 L6.2 118.06 a0.967114 0.977335 0 0 1 -0.967114
									 0.977335 L0.93 119.04 a0.967114 0.977335 0 0 1 -0.933766 -0.977335 L0 106.03 Z" class="st3"/>
					</g>
					<g id="shape13893-17">
						<title>Sheet.13893</title>
						<path d="M0 106.03 L4.3 106.03 A1.90088 1.92097 0 0 1 6.2 107.95 L6.2 118.06 a0.967114 0.977335 0 0 1 -0.967114
									 0.977335 L0.93 119.04 a0.967114 0.977335 0 0 1 -0.933766 -0.977335 L0 106.03 Z" class="st4"/>
					</g>
				</g>
				<g id="shape13894-19" transform="translate(0,-44.89)">
					<title>Sheet.13894</title>
					<path d="M56.69 114.83 L56.69 119.04 L0 119.04 L0 114.83 A1.90088 1.92097 0 0 1 1.9 112.91 L54.83 112.91 A1.90088
								 1.92097 0 0 1 56.69 114.83 Z" class="st1"/>
				</g>
				<g id="group13895-21">
					<title>Sheet.13895</title>
					<g id="shape13896-22">
						<title>Sheet.13896</title>
						<path d="M0.97 105.93 L5.27 105.93 a0.967114 0.977335 0 0 1 0.967114 0.977335 L6.24 119.04 L1.9 119.04 A1.90088
									 1.92097 0 0 1 0 117.12 L0 107.01 a0.967114 0.977335 0 0 1 0.967114 -1.07844 Z" class="st3"/>
					</g>
					<g id="shape13897-24">
						<title>Sheet.13897</title>
						<path d="M0.97 105.93 L5.27 105.93 a0.967114 0.977335 0 0 1 0.967114 0.977335 L6.24 119.04 L1.9 119.04 A1.90088
									 1.92097 0 0 1 0 117.12 L0 107.01 a0.967114 0.977335 0 0 1 0.967114 -1.07844 Z" class="st4"/>
					</g>
				</g>
				<g id="group13898-26" transform="translate(50.49,-0.101104)">
					<title>Sheet.13898</title>
					<g id="shape13899-27">
						<title>Sheet.13899</title>
						<path d="M0.93 106.03 L5.24 106.03 a0.967114 0.977335 0 0 1 0.967114 0.977335 L6.2 117.12 A1.90088 1.92097
									 0 0 1 4.3 119.04 L0 119.04 L0 107.11 a0.967114 0.977335 0 0 1 0.933766 -1.07844 Z" class="st3"/>
					</g>
					<g id="shape13900-29">
						<title>Sheet.13900</title>
						<path d="M0.93 106.03 L5.24 106.03 a0.967114 0.977335 0 0 1 0.967114 0.977335 L6.2 117.12 A1.90088 1.92097
									 0 0 1 4.3 119.04 L0 119.04 L0 107.11 a0.967114 0.977335 0 0 1 0.933766 -1.07844 Z" class="st4"/>
					</g>
				</g>
				<g id="shape13901-31">
					<title>Sheet.13901</title>
					<path d="M0 117.12 L0 112.91 L56.69 112.91 L56.69 117.12 A1.90088 1.92097 0 0 1 54.79 119.04 L1.9 119.04 A1.90088
								 1.92097 0 0 1 0 117.12 Z" class="st1"/>
				</g>
			</g>
		</g>
	</g>
</svg>
